X:279
T: Es hat sich ein Bauer ein Tchterlein (3-81), S. 224
N: P1054
O: Lothringen
S: PINCK, Louis: Verklingende Weisen, Bd3, Metz 1933]
R: Treue-Untreue]
M: 3/4
L: 1/16
K: G
D4 | G4G4G4 | G4G4A4 | G4F4E4 | D8
B4 | G8B4 | B6c2d4 | d6c2B4 | B8-B3A | A8
D3D | c4c4c4 | c6B2A4 | B8B4 | B4A4
G4 | A4A4A4 | c6B2A4 | A12 | G8
D3D | c4c4c4 | c6B2A4 | B6B2B2B2 | B4A4
G4 | A4A4A4 | c6B2A4 | A12 | G8

@@@ Tune index: 7829
